X:1
T:Title
%%score ( 1 2 ) ( 3 4 )
L:1/8
Q:1/4=93
M:3/4
K:Ab
V:1 treble nm="Grand Piano, Soprano"
V:2 treble 
V:3 bass nm="Choir Pad, Some Day (Alleman)"
V:4 bass 
V:1
 [CE]2 [Ec]3 [EA] | [DF][DA] [DF]2 [CE]2 | [EA]2 [Ec]3 [Ec] | [Ed][Ec] [EB]4 | E2 [Ec]3 [EA] | %5
w: By~John~H.~Alleman * *|||||
 [DF][DA] [DF]2 [CE]2 | [EA]2 [FB]3 [Fc] | [Fd][DG] [CA]4 | A2 z2 z2 | [Fd]2 [Ec]4 | %10
w: |||||
 [Ec]2 [=Dc]3 [DB] | [=DA][DF] [EB]4 | [DE]2 [CE]>[CA] [CA]2- | [CA][DB] [Ec]>[_Gc] [Fd]2 | %14
w: ||||
 [Fd]2 [Ec]3 [CA] | [Ec][DB] [CA]4- | [CA]4 z2 |] %17
w: |||
V:2
 x6 | x6 | x6 | x6 | x6 | x6 | x6 | x6 | E_G [Fd]4 | x6 | x6 | x6 | x6 | x6 | x6 | x6 | x6 |] %17
V:3
 [A,,A,]2 [A,,A,]3 [C,A,] | [D,A,][F,A,] A,2 A,2 | [A,C]2 A,3 A, | [G,B,]A, [E,G,]4 | %4
 [E,G,]2 [A,,A,]3 [C,A,] | [D,A,][F,A,] A,2 A,2 | [C,A,]2 [D,A,]3 [C,=A,] | %7
 [B,,B,][E,B,] [A,,A,]4 | z2 z2 A,2 | A,2 z2 z2 | [A,,A,]2 [B,,F,]3 [B,,B,] | %11
 [F,B,][F,A,] [E,G,]4 | [E,G,]2 [A,,A,]>[A,,E,] [A,,E,]2- | %13
 [A,,E,][A,,E,] [A,,A,]>[A,,A,] [D,A,]2 | [D,A,]2 [E,A,]3 [E,A,] | [E,A,][E,G,] [A,,E,A,]4- | %16
 [A,,E,A,]4 z2 |] %17
V:4
 x6 | x6 | x6 | x6 | x6 | x6 | x6 | x6 | [A,C]2 [D,A,]>[D,A,] D,E, | F,G, A,>[E,A,] [C,A,]2 | x6 | %11
 x6 | x6 | x6 | x6 | x6 | x6 |] %17

